Adwaita++/status/16/media-playlist-no-shuffle.svg

<svg id="svg10" height="16" width="16" xmlns="http://www.w3.org/2000/svg">
  <g fill="#474747">
    <g id="g8" transform="translate(0 -4)">
      <path id="path2" d="m1.018 7v2h12.982v-2z"/>
      <path id="path4" d="m11.99 4.99a1 1 0 0 0 -.697 1.717l1.293 1.293-1.293 1.293a1 1 0 1 0 1.414 1.414l2.707-2.707-2.707-2.707a1 1 0 0 0 -.717-.303z"/>
      <path id="path6" d="m11 5h1v1h-1zm0 5h1v1h-1z"/>
    </g>
    <g id="g829" transform="translate(0 4)">
      <path id="path823" d="m1.018 7v2h12.982v-2z"/>
      <path id="path825" d="m11.99 4.99a1 1 0 0 0 -.697 1.717l1.293 1.293-1.293 1.293a1 1 0 1 0 1.414 1.414l2.707-2.707-2.707-2.707a1 1 0 0 0 -.717-.303z"/>
      <path id="path827" d="m11 5h1v1h-1zm0 5h1v1h-1z"/>
    </g>
  </g>
</svg>

<?xml version="1.0" encoding="UTF-8" standalone="no"?>
<svg
   xmlns:dc="http://purl.org/dc/elements/1.1/"
   xmlns:cc="http://creativecommons.org/ns#"
   xmlns:rdf="http://www.w3.org/1999/02/22-rdf-syntax-ns#"
   xmlns:svg="http://www.w3.org/2000/svg"
   xmlns="http://www.w3.org/2000/svg"
   xmlns:sodipodi="http://sodipodi.sourceforge.net/DTD/sodipodi-0.dtd"
   xmlns:inkscape="http://www.inkscape.org/namespaces/inkscape"
   width="16"
   height="16"
   version="1.1"
   id="svg10"
   sodipodi:docname="media-playlist-consecutive.svg"
   inkscape:version="0.92.4 (5da689c313, 2019-01-14)">
  <metadata
     id="metadata16">
    <rdf:RDF>
      <cc:Work
         rdf:about="">
        <dc:format>image/svg+xml</dc:format>
        <dc:type
           rdf:resource="http://purl.org/dc/dcmitype/StillImage" />
        <dc:title></dc:title>
      </cc:Work>
    </rdf:RDF>
  </metadata>
  <defs
     id="defs14" />
  <sodipodi:namedview
     pagecolor="#ffffff"
     bordercolor="#666666"
     borderopacity="1"
     objecttolerance="10"
     gridtolerance="10"
     guidetolerance="10"
     inkscape:pageopacity="0"
     inkscape:pageshadow="2"
     inkscape:window-width="793"
     inkscape:window-height="480"
     id="namedview12"
     showgrid="false"
     inkscape:zoom="14.75"
     inkscape:cx="8"
     inkscape:cy="8"
     inkscape:window-x="0"
     inkscape:window-y="27"
     inkscape:window-maximized="0"
     inkscape:current-layer="svg10" />
  <g
     id="g8"
     transform="translate(0,-4)"
     style="fill:#474747">
    <path
       d="M 1.018,7 V 9 H 14 V 7 Z"
       style="color:#bebebe;font-weight:400;line-height:normal;font-family:sans-serif;font-variant-ligatures:normal;font-variant-position:normal;font-variant-caps:normal;font-variant-numeric:normal;font-variant-alternates:normal;font-feature-settings:normal;text-indent:0;text-align:start;text-decoration:none;text-decoration-line:none;text-decoration-style:solid;text-decoration-color:#000000;text-transform:none;text-orientation:mixed;white-space:normal;shape-padding:0;overflow:visible;isolation:auto;mix-blend-mode:normal;marker:none"
       font-weight="400"
       overflow="visible"
       id="path2"
       inkscape:connector-curvature="0" />
    <path
       d="M 11.99,4.99 A 1,1 0 0 0 11.293,6.707 L 12.586,8 11.293,9.293 a 1,1 0 1 0 1.414,1.414 L 15.414,8 12.707,5.293 A 1,1 0 0 0 11.99,4.99 Z"
       style="color:#bebebe;font-weight:400;line-height:normal;font-family:sans-serif;font-variant-ligatures:normal;font-variant-position:normal;font-variant-caps:normal;font-variant-numeric:normal;font-variant-alternates:normal;font-feature-settings:normal;text-indent:0;text-align:start;text-decoration:none;text-decoration-line:none;text-decoration-style:solid;text-decoration-color:#000000;text-transform:none;text-orientation:mixed;white-space:normal;shape-padding:0;overflow:visible;isolation:auto;mix-blend-mode:normal;marker:none"
       font-weight="400"
       overflow="visible"
       id="path4"
       inkscape:connector-curvature="0" />
    <path
       d="m 11,5 h 1 v 1 h -1 z m 0,5 h 1 v 1 h -1 z"
       style="color:#000000;overflow:visible;marker:none"
       overflow="visible"
       id="path6"
       inkscape:connector-curvature="0" />
  </g>
  <g
     style="fill:#474747"
     id="g829"
     transform="translate(0,4)">
    <path
       inkscape:connector-curvature="0"
       id="path823"
       overflow="visible"
       font-weight="400"
       style="color:#bebebe;font-weight:400;line-height:normal;font-family:sans-serif;font-variant-ligatures:normal;font-variant-position:normal;font-variant-caps:normal;font-variant-numeric:normal;font-variant-alternates:normal;font-feature-settings:normal;text-indent:0;text-align:start;text-decoration:none;text-decoration-line:none;text-decoration-style:solid;text-decoration-color:#000000;text-transform:none;text-orientation:mixed;white-space:normal;shape-padding:0;overflow:visible;isolation:auto;mix-blend-mode:normal;marker:none"
       d="M 1.018,7 V 9 H 14 V 7 Z" />
    <path
       inkscape:connector-curvature="0"
       id="path825"
       overflow="visible"
       font-weight="400"
       style="color:#bebebe;font-weight:400;line-height:normal;font-family:sans-serif;font-variant-ligatures:normal;font-variant-position:normal;font-variant-caps:normal;font-variant-numeric:normal;font-variant-alternates:normal;font-feature-settings:normal;text-indent:0;text-align:start;text-decoration:none;text-decoration-line:none;text-decoration-style:solid;text-decoration-color:#000000;text-transform:none;text-orientation:mixed;white-space:normal;shape-padding:0;overflow:visible;isolation:auto;mix-blend-mode:normal;marker:none"
       d="M 11.99,4.99 A 1,1 0 0 0 11.293,6.707 L 12.586,8 11.293,9.293 a 1,1 0 1 0 1.414,1.414 L 15.414,8 12.707,5.293 A 1,1 0 0 0 11.99,4.99 Z" />
    <path
       inkscape:connector-curvature="0"
       id="path827"
       overflow="visible"
       style="color:#000000;overflow:visible;marker:none"
       d="m 11,5 h 1 v 1 h -1 z m 0,5 h 1 v 1 h -1 z" />
  </g>
</svg>
